svgs/messenger_pro.svg

<svg width="192" height="192" viewBox="0 0 192 192" fill="none" xmlns="http://www.w3.org/2000/svg">
    <path d="M54.822 175.484C53.562 175.484 52.666 175.302 52.134 174.938C51.602 174.546 51.28 174.056 51.168 173.468C51.056 172.852 51 172.236 51 171.62V149.948C51 149.332 51.056 148.73 51.168 148.142C51.28 147.554 51.602 147.078 52.134 146.714C52.666 146.322 53.576 146.126 54.864 146.126H63.222C64.286 146.126 65.434 146.35 66.666 146.798C67.898 147.218 69.06 147.876 70.152 148.772C71.272 149.668 72.182 150.788 72.882 152.132C73.582 153.476 73.932 155.072 73.932 156.92C73.932 158.74 73.582 160.322 72.882 161.666C72.182 163.01 71.272 164.13 70.152 165.026C69.06 165.894 67.898 166.552 66.666 167C65.434 167.42 64.272 167.63 63.18 167.63H58.686V171.662C58.686 172.278 58.63 172.88 58.518 173.468C58.406 174.056 58.084 174.546 57.552 174.938C57.02 175.302 56.11 175.484 54.822 175.484ZM58.686 159.944H63.222C63.586 159.944 64.006 159.86 64.482 159.692C64.958 159.496 65.378 159.174 65.742 158.726C66.106 158.278 66.288 157.662 66.288 156.878C66.288 156.29 66.148 155.772 65.868 155.324C65.588 154.848 65.21 154.484 64.734 154.232C64.286 153.952 63.768 153.812 63.18 153.812H58.686V159.944Z" fill="#000000"/>
    <path d="M85.4327 175.484C84.1727 175.484 83.2767 175.302 82.7447 174.938C82.2127 174.546 81.8907 174.056 81.7787 173.468C81.6667 172.852 81.6107 172.236 81.6107 171.62V149.948C81.6107 149.332 81.6667 148.73 81.7787 148.142C81.8907 147.554 82.2127 147.078 82.7447 146.714C83.2767 146.322 84.1867 146.126 85.4747 146.126H93.9167C94.9807 146.126 96.1287 146.35 97.3607 146.798C98.5927 147.218 99.7547 147.876 100.847 148.772C101.939 149.668 102.835 150.788 103.535 152.132C104.235 153.476 104.585 155.072 104.585 156.92C104.585 158.208 104.389 159.412 103.997 160.532C103.633 161.652 103.073 162.674 102.317 163.598C101.589 164.494 100.693 165.292 99.6287 165.992C98.5927 166.664 97.4027 167.196 96.0587 167.588H89.2967V171.662C89.2967 172.278 89.2407 172.88 89.1287 173.468C89.0167 174.056 88.6947 174.546 88.1627 174.938C87.6307 175.302 86.7207 175.484 85.4327 175.484ZM103.031 174.476C101.771 175.428 100.777 175.806 100.049 175.61C99.3207 175.442 98.5367 174.798 97.6967 173.678L89.9687 163.178L98.7047 162.086L103.913 169.1C104.473 169.912 104.823 170.598 104.963 171.158C105.131 171.718 105.061 172.25 104.753 172.754C104.445 173.258 103.871 173.832 103.031 174.476ZM89.2967 159.944H93.9167C94.1687 159.944 94.4627 159.902 94.7987 159.818C95.1627 159.706 95.4987 159.538 95.8067 159.314C96.1147 159.062 96.3667 158.74 96.5627 158.348C96.7867 157.956 96.8987 157.466 96.8987 156.878C96.8987 156.29 96.7587 155.772 96.4787 155.324C96.1987 154.848 95.8207 154.484 95.3447 154.232C94.8967 153.952 94.3927 153.812 93.8327 153.812H89.2967V159.944Z" fill="#000000"/>
    <path d="M126.04 175.988C123.996 175.988 122.078 175.61 120.286 174.854C118.522 174.07 116.968 172.992 115.624 171.62C114.28 170.248 113.216 168.666 112.432 166.874C111.676 165.054 111.298 163.122 111.298 161.078C111.298 158.95 111.662 156.962 112.39 155.114C113.146 153.266 114.182 151.642 115.498 150.242C116.814 148.842 118.34 147.75 120.076 146.966C121.84 146.182 123.716 145.79 125.704 145.79C127.748 145.79 129.652 146.182 131.416 146.966C133.208 147.722 134.776 148.786 136.12 150.158C137.464 151.53 138.514 153.14 139.27 154.988C140.026 156.808 140.404 158.782 140.404 160.91C140.404 162.982 140.026 164.928 139.27 166.748C138.542 168.568 137.506 170.178 136.162 171.578C134.846 172.95 133.32 174.028 131.584 174.812C129.876 175.596 128.028 175.988 126.04 175.988ZM125.83 168.302C126.782 168.302 127.678 168.12 128.518 167.756C129.358 167.364 130.086 166.846 130.702 166.202C131.346 165.53 131.836 164.746 132.172 163.85C132.536 162.926 132.718 161.946 132.718 160.91C132.718 159.874 132.536 158.908 132.172 158.012C131.808 157.116 131.304 156.332 130.66 155.66C130.044 154.96 129.316 154.428 128.476 154.064C127.664 153.672 126.796 153.476 125.872 153.476C124.92 153.476 124.024 153.672 123.184 154.064C122.372 154.428 121.644 154.96 121 155.66C120.384 156.332 119.894 157.116 119.53 158.012C119.166 158.908 118.984 159.874 118.984 160.91C118.984 161.918 119.166 162.87 119.53 163.766C119.894 164.662 120.384 165.46 121 166.16C121.644 166.832 122.372 167.364 123.184 167.756C124.024 168.12 124.906 168.302 125.83 168.302Z" fill="#000000"/>
    <path d="M37.3387 162.088L33.9421 162.749C31.1581 163.291 28.7091 160.842 29.2511 158.058L33.5871 135.786C15.2971 107.155 18.6601 68.6882 43.6741 43.6742C72.5731 14.7752 119.427 14.7752 148.326 43.6742C176.656 72.0041 177.214 117.589 150 146.598" stroke="#000000" stroke-width="12" stroke-linecap="round" stroke-linejoin="round"/>
    <path d="M131.353 83.27L107.312 107.312L85.3921 85.392L61.3501 109.433" stroke="#000000" stroke-width="12" stroke-linecap="round" stroke-linejoin="round"/>
</svg>

<svg xmlns="http://www.w3.org/2000/svg" width="192" height="192" fill="none" viewBox="0 0 192 192"><path fill="#000" d="M54.822 175.484c-1.26 0-2.156-.182-2.688-.546-.532-.392-.854-.882-.966-1.47A10.311 10.311 0 0 1 51 171.62v-21.672c0-.616.056-1.218.168-1.806.112-.588.434-1.064.966-1.428.532-.392 1.442-.588 2.73-.588h8.358c1.064 0 2.212.224 3.444.672 1.232.42 2.394 1.078 3.486 1.974 1.12.896 2.03 2.016 2.73 3.36.7 1.344 1.05 2.94 1.05 4.788 0 1.82-.35 3.402-1.05 4.746-.7 1.344-1.61 2.464-2.73 3.36A12.392 12.392 0 0 1 66.666 167c-1.232.42-2.394.63-3.486.63h-4.494v4.032a9.63 9.63 0 0 1-.168 1.806c-.112.588-.434 1.078-.966 1.47-.532.364-1.442.546-2.73.546Zm3.864-15.54h4.536c.364 0 .784-.084 1.26-.252.476-.196.896-.518 1.26-.966.364-.448.546-1.064.546-1.848 0-.588-.14-1.106-.42-1.554a2.834 2.834 0 0 0-1.134-1.092c-.448-.28-.966-.42-1.554-.42h-4.494v6.132Zm26.747 15.54c-1.26 0-2.156-.182-2.688-.546-.532-.392-.854-.882-.966-1.47a10.311 10.311 0 0 1-.168-1.848v-21.672c0-.616.056-1.218.168-1.806.112-.588.434-1.064.966-1.428.532-.392 1.442-.588 2.73-.588h8.442c1.064 0 2.212.224 3.444.672 1.232.42 2.394 1.078 3.486 1.974 1.092.896 1.988 2.016 2.688 3.36.7 1.344 1.05 2.94 1.05 4.788 0 1.288-.196 2.492-.588 3.612a9.385 9.385 0 0 1-1.68 3.066c-.728.896-1.624 1.694-2.688 2.394-1.036.672-2.226 1.204-3.57 1.596h-6.762v4.074a9.63 9.63 0 0 1-.168 1.806c-.112.588-.434 1.078-.966 1.47-.532.364-1.442.546-2.73.546Zm17.598-1.008c-1.26.952-2.254 1.33-2.982 1.134-.728-.168-1.512-.812-2.352-1.932l-7.728-10.5 8.736-1.092 5.208 7.014c.56.812.91 1.498 1.05 2.058.168.56.098 1.092-.21 1.596s-.882 1.078-1.722 1.722Zm-13.734-14.532h4.62c.252 0 .546-.042.882-.126.364-.112.7-.28 1.008-.504.308-.252.56-.574.756-.966.224-.392.336-.882.336-1.47s-.14-1.106-.42-1.554a2.834 2.834 0 0 0-1.134-1.092 2.794 2.794 0 0 0-1.512-.42h-4.536v6.132Zm36.743 16.044c-2.044 0-3.962-.378-5.754-1.134a14.987 14.987 0 0 1-4.662-3.234 15.73 15.73 0 0 1-3.192-4.746c-.756-1.82-1.134-3.752-1.134-5.796 0-2.128.364-4.116 1.092-5.964a15.744 15.744 0 0 1 3.108-4.872 14.312 14.312 0 0 1 4.578-3.276 13.701 13.701 0 0 1 5.628-1.176c2.044 0 3.948.392 5.712 1.176 1.792.756 3.36 1.82 4.704 3.192 1.344 1.372 2.394 2.982 3.15 4.83.756 1.82 1.134 3.794 1.134 5.922 0 2.072-.378 4.018-1.134 5.838a14.894 14.894 0 0 1-3.108 4.83 14.628 14.628 0 0 1-4.578 3.234c-1.708.784-3.556 1.176-5.544 1.176Zm-.21-7.686c.952 0 1.848-.182 2.688-.546a7.207 7.207 0 0 0 2.184-1.554 6.82 6.82 0 0 0 1.47-2.352 7.948 7.948 0 0 0 .546-2.94 7.626 7.626 0 0 0-.546-2.898 7.373 7.373 0 0 0-1.512-2.352 6.121 6.121 0 0 0-2.184-1.596 5.912 5.912 0 0 0-2.604-.588c-.952 0-1.848.196-2.688.588A6.652 6.652 0 0 0 121 155.66a7.775 7.775 0 0 0-1.47 2.352 7.626 7.626 0 0 0-.546 2.898c0 1.008.182 1.96.546 2.856a8.35 8.35 0 0 0 1.47 2.394 7.56 7.56 0 0 0 2.184 1.596c.84.364 1.722.546 2.646.546Z"/><path stroke="#000" stroke-linecap="round" stroke-linejoin="round" stroke-width="12" d="m37.339 162.088-3.397.661c-2.784.542-5.233-1.907-4.69-4.691l4.335-22.272c-18.29-28.631-14.927-67.098 10.087-92.112 28.9-28.899 75.753-28.899 104.652 0 28.33 28.33 28.888 73.915 1.674 102.924"/><path stroke="#000" stroke-linecap="round" stroke-linejoin="round" stroke-width="12" d="m131.353 83.27-24.041 24.042-21.92-21.92-24.042 24.041"/></svg>
